icons/svg/24x24/windows/filled.svg

<svg width="24" height="24" fill="none" xmlns="http://www.w3.org/2000/svg">
  <path fill-rule="evenodd" clip-rule="evenodd" d="M19 3h-8C9.346 3 8 4.346 8 6v1h5c2.757 0 5 2.243 5 5v3h1c1.654 0 3-1.346 3-3V6c0-1.654-1.346-3-3-3zm-3 9v7c0 1.654-1.346 3-3 3H5c-1.654 0-3-1.346-3-3v-7c0-1.654 1.346-3 3-3h8c1.654 0 3 1.346 3 3z" fill="#000"/>
</svg>

<svg xmlns="http://www.w3.org/2000/svg" width="24" height="24" viewBox="0 0 24 24">
  <path fill-rule="evenodd" d="M19,3 L11,3 C9.346,3 8,4.346 8,6 L8,7 L13,7 C15.757,7 18,9.243 18,12 L18,15 L19,15 C20.654,15 22,13.654 22,12 L22,6 C22,4.346 20.654,3 19,3 M16,12 L16,19 C16,20.654 14.654,22 13,22 L5,22 C3.346,22 2,20.654 2,19 L2,12 C2,10.346 3.346,9 5,9 L13,9 C14.654,9 16,10.346 16,12"/>
</svg>
